packages/ui/public/icons/notification.svg

<svg width="20" height="20" viewBox="0 0 20 20" fill="none" xmlns="http://www.w3.org/2000/svg">
<path d="M9 2H5.8C4.11984 2 3.27976 2 2.63803 2.32698C2.07354 2.6146 1.6146 3.07354 1.32698 3.63803C1 4.27976 1 5.11984 1 6.8V14.2C1 15.8802 1 16.7202 1.32698 17.362C1.6146 17.9265 2.07354 18.3854 2.63803 18.673C3.27976 19 4.11984 19 5.8 19H13.2C14.8802 19 15.7202 19 16.362 18.673C16.9265 18.3854 17.3854 17.9265 17.673 17.362C18 16.7202 18 15.8802 18 14.2V11M11 15H5M13 11H5M18.1213 1.87868C19.2929 3.05025 19.2929 4.94975 18.1213 6.12132C16.9497 7.29289 15.0503 7.29289 13.8787 6.12132C12.7071 4.94975 12.7071 3.05025 13.8787 1.87868C15.0503 0.707107 16.9497 0.707107 18.1213 1.87868Z" stroke="white" stroke-width="2" stroke-linecap="round" stroke-linejoin="round"/>
</svg>

<svg width="20" height="20" fill="none" xmlns="http://www.w3.org/2000/svg"><path d="M9 2H5.8c-1.68 0-2.52 0-3.162.327a3 3 0 0 0-1.311 1.311C1 4.28 1 5.12 1 6.8v7.4c0 1.68 0 2.52.327 3.162a3 3 0 0 0 1.311 1.311C3.28 19 4.12 19 5.8 19h7.4c1.68 0 2.52 0 3.162-.327a3 3 0 0 0 1.311-1.311C18 16.72 18 15.88 18 14.2V11m-7 4H5m8-4H5m13.121-9.121A3 3 0 1 1 13.88 6.12 3 3 0 0 1 18.12 1.88Z" stroke="#fff" stroke-width="2" stroke-linecap="round" stroke-linejoin="round"/></svg>
